src/lib/packages/icons/src/assets/line/image-times.svg

<svg width="24" height="24" viewBox="0 0 24 24" fill="none" xmlns="http://www.w3.org/2000/svg">
<path d="M21 10.25C20.586 10.25 20.25 10.586 20.25 11V13.189L16.24 9.17996C15.58 8.51896 14.42 8.51896 13.76 9.17996L9 13.939L8.23999 13.18C7.57999 12.519 6.42001 12.519 5.76001 13.18L3.75 15.19V7.00002C3.75 5.42302 4.423 4.75002 6 4.75002H14C14.414 4.75002 14.75 4.41402 14.75 4.00002C14.75 3.58602 14.414 3.25002 14 3.25002H6C3.582 3.25002 2.25 4.58202 2.25 7.00002V17C2.25 19.418 3.582 20.75 6 20.75H18C20.418 20.75 21.75 19.418 21.75 17V11C21.75 10.586 21.414 10.25 21 10.25ZM20.25 17C20.25 18.577 19.577 19.25 18 19.25H6C4.528 19.25 3.85197 18.654 3.76697 17.293L6.81995 14.24C6.94695 14.114 7.05196 14.114 7.17896 14.24L8.11804 15.179C8.58504 15.647 9.41403 15.646 9.87903 15.179L14.819 10.239C14.946 10.113 15.051 10.113 15.178 10.239L20.248 15.3091V17H20.25ZM8 7.75002C8.69 7.75002 9.25 8.31002 9.25 9.00002C9.25 9.69002 8.69 10.25 8 10.25C7.31 10.25 6.75 9.69002 6.75 9.00002C6.75 8.31002 7.31 7.75002 8 7.75002ZM21.53 6.46999C21.823 6.76299 21.823 7.23803 21.53 7.53103C21.384 7.67703 21.192 7.751 21 7.751C20.808 7.751 20.616 7.67803 20.47 7.53103L19.5 6.56106L18.53 7.53103C18.384 7.67703 18.192 7.751 18 7.751C17.808 7.751 17.616 7.67803 17.47 7.53103C17.177 7.23803 17.177 6.76299 17.47 6.46999L18.4399 5.50002L17.47 4.53005C17.177 4.23705 17.177 3.76202 17.47 3.46902C17.763 3.17602 18.238 3.17602 18.531 3.46902L19.501 4.43899L20.4709 3.46902C20.7639 3.17602 21.239 3.17602 21.532 3.46902C21.825 3.76202 21.825 4.23705 21.532 4.53005L20.562 5.50002L21.53 6.46999Z" fill="currentColor"/>
</svg>

<svg xmlns="http://www.w3.org/2000/svg" width="24" height="24" fill="none"><path fill="currentColor" d="M21 10.25a.75.75 0 0 0-.75.75v2.189L16.24 9.18c-.66-.661-1.82-.661-2.48 0L9 13.939l-.76-.759c-.66-.661-1.82-.661-2.48 0l-2.01 2.01V7c0-1.577.673-2.25 2.25-2.25h8a.75.75 0 0 0 0-1.5H6C3.582 3.25 2.25 4.582 2.25 7v10c0 2.418 1.332 3.75 3.75 3.75h12c2.418 0 3.75-1.332 3.75-3.75v-6a.75.75 0 0 0-.75-.75ZM20.25 17c0 1.577-.673 2.25-2.25 2.25H6c-1.472 0-2.148-.596-2.233-1.957L6.82 14.24c.127-.126.232-.126.359 0l.939.939c.467.468 1.296.467 1.761 0l4.94-4.94c.127-.126.232-.126.359 0l5.07 5.07V17h.002ZM8 7.75a1.25 1.25 0 1 1 0 2.5 1.25 1.25 0 0 1 0-2.5Zm13.53-1.28a.75.75 0 0 1-1.06 1.061l-.97-.97-.97.97a.748.748 0 0 1-1.06 0 .75.75 0 0 1 0-1.061l.97-.97-.97-.97a.75.75 0 0 1 1.061-1.061l.97.97.97-.97a.75.75 0 0 1 1.061 1.061l-.97.97.968.97Z"/></svg>
